rospo-icon-theme-classic-common/32x32/apps/microscope.svg

<svg height="32" viewBox="0 0 32 32" width="32" xmlns="http://www.w3.org/2000/svg"><path d="m12.501953 7.0234375c-.456325-.0101068-.915544.1536577-1.271484.4941406l-3.0488284 2.9160159c-4.1111157 3.932877-4.2571558 10.478729-.3242187 14.589844l.9335937.976562h4.3378904l-3.2929685-3.443359c-1.1660896-1.21894-1.7842639-2.764443-1.8613281-4.330079-.092994-1.889265.4822857-3.943771 2.0722656-5.214843l3.648437-2.917969c.769376-.6150596.737606-1.8096641.05664-2.5214844-.340482-.3558807-.793675-.5387213-1.25-.5488281z" opacity=".2"/><path d="m15.030145 18.503372c.06257-.236804.218003-.439471.432199-.563409l3.133865-1.812806c.445937-.257962 1.020079-.111021 1.282109.328327l1.992575 3.341696c.261904.439408.112717 1.004722-.333345 1.262807l-3.133865 1.812806c-.193151.111698-.410218.147495-.615608.116557-.268961-.0406-.517939-.195717-.666501-.444883l-1.992575-3.341695c-.125832-.21097-.161365-.462597-.09885-.6994z" opacity=".2"/><path d="m7.8397862 26.999996h7.6053098 2.909009 6.806107c1.016053 0 1.839787.895468 1.839787 2.000001s-.823734 1.999999-1.839787 1.999999h-6.806107-4.298539-6.2157798c-1.0160528 0-1.8397869-.895466-1.8397869-1.999999 0-1.1046.8236725-2.000001 1.8397869-2.000001z" opacity=".2"/><path d="m-25 25h7v2h-7z" fill="#e4e4e4" transform="scale(-1 1)"/><path d="m14.337706 29.649998h10.765295c.985003 0 1.783564-.448561 1.783564-1.433564 0-.985002-.798561-1.783564-1.783564-1.783564h-10.603005l-4.6646744-4.876086c-1.1660895-1.218939-1.7842559-2.764806-1.8613201-4.330441-.092994-1.889265.4828718-3.943407 2.0728515-5.214479l3.649186-2.9172574c.769375-.6150594.73679-1.8099011.055825-2.5217213-.680965-.7117613-1.809842-.7367907-2.521722-.055825l-3.0494777 2.9172563c-4.1111152 3.9328774-4.2561189 10.4772504-.3231823 14.5883644l5.191419 5.426673c.3365.351717.80207.200644 1.288805.200644z" fill="#3f3f3f"/><path d="m15.030145 17.503374c.06257-.236804.218003-.439471.432199-.563409l3.133865-1.812806c.445937-.257962 1.020079-.111021 1.282109.328327l1.992575 3.341696c.261904.439408.112717 1.004722-.333345 1.262807l-3.133865 1.812806c-.193151.111698-.410218.147495-.615608.116557-.268961-.0406-.517939-.195717-.666501-.444883l-1.992575-3.341695c-.125832-.21097-.161365-.462597-.09885-.6994z" fill="#4f4f4f"/><path d="m7.096993 6.7192615c.2000054-.793118.6875638-1.4584895 1.3729219-1.8735161l2.3503631-1.4233501c.588171-.3561219 1.282818-.4936859 1.956042-.3873701.889601.1404972 1.661056.6796188 2.11651 1.4792018l5.9872 10.511671c.117042.205388.150077.450226.0919.680697-.05811.230469-.202617.427717-.401809.54834l-5.979944 3.621261c-.179569.10871-.381373.143549-.572321.113439-.25005-.03951-.481521-.190482-.619638-.432985l-5.9871966-10.5116117c-.4025063-.7067366-.5140331-1.5326589-.3140284-2.3257768z" opacity=".2"/><path d="m7.096993 5.7192632c.2000054-.793118.6875638-1.4584895 1.3729219-1.8735161l2.3503631-1.4233501c.588171-.3561219 1.282818-.4936859 1.956042-.3873701.889601.1404972 1.661056.6796188 2.11651 1.4792018l5.9872 10.5116713c.117042.205388.150077.450226.0919.680697-.05811.230469-.202617.427717-.401809.54834l-5.979944 3.621261c-.179569.10871-.381373.143549-.572321.113439-.25005-.03951-.481521-.190482-.619638-.432985l-5.9871966-10.511612c-.4025063-.7067366-.5140331-1.5326589-.3140284-2.3257768z" fill="#ff9b32"/><path d="m7.8397862 25.999998h7.6053098 2.909009 6.806107c1.016053 0 1.839787.895468 1.839787 2.000001s-.823734 1.999999-1.839787 1.999999h-6.806107-4.298539-6.2157798c-1.0160528 0-1.8397869-.895466-1.8397869-1.999999 0-1.1046.8236725-2.000001 1.8397869-2.000001z" fill="#ff9b32"/><path d="m9.9999989 14.999996c2.2056071 0 3.9999991-1.794392 3.9999991-3.999999 0-2.2056068-1.794392-3.9999992-3.9999991-3.9999992s-3.9999996 1.7943924-3.9999996 3.9999992c0 2.205607 1.7943925 3.999999 3.9999996 3.999999z" opacity=".2"/><path d="m9.9999989 13.999998c2.2056071 0 3.9999991-1.794392 3.9999991-3.9999997 0-2.2056064-1.794392-3.9999988-3.9999991-3.9999988s-3.9999996 1.7943924-3.9999996 3.9999988c0 2.2056077 1.7943925 3.9999997 3.9999996 3.9999997z" fill="#4f4f4f"/><path d="m9.9999988 8.9999975c1.1028072 0 2.0000002.8971926 2.0000002 1.9999995 0 1.102807-.897193 1.999999-2.0000002 1.999999s-1.9999998-.897192-1.9999998-1.999999c0-1.1028069.8971926-1.9999995 1.9999998-1.9999995z" opacity=".2"/><path d="m9.9999988 7.9999992c1.1028072 0 2.0000002.8971926 2.0000002 1.9999991 0 1.1028077-.897193 1.9999997-2.0000002 1.9999997s-1.9999998-.897192-1.9999998-1.9999997c0-1.1028065.8971926-1.9999991 1.9999998-1.9999991z" fill="#e4e4e4"/><path d="m12.269531 2c-.506956.0105311-1.00809.1547835-1.449219.421875l-2.3496089 1.4238281c-.6853582.4150267-1.1730414 1.0799288-1.3730469 1.8730469-.1089442.432018-.1175233.871908-.0449218 1.2988281.0152845-.0994999.020013-.2000522.0449218-.2988281.2000055-.7931181.6876887-1.4580202 1.3730469-1.8730469l2.3496089-1.4238281c.588172-.3561219 1.281855-.4930346 1.955079-.3867188.889601.1404973 1.661733.6789326 2.117187 1.4785157l5.957031 10.4550781c.051765-.081228.098883-.16588.123047-.261719.058177-.230471.025245-.476252-.091797-.68164l-5.988281-10.5117191c-.455454-.7995831-1.227586-1.3380184-2.117187-1.4785157-.168306-.0265789-.336874-.0386666-.50586-.0351562z" fill="#fff" opacity=".2"/><path d="m7.8398438 26c-1.0161146 0-1.8398438.8954-1.8398438 2 0 .173788.0261276.339237.0644531.5.2052448-.861013.9191526-1.5 1.7753907-1.5h7.6054682 2.908204 6.80664c.856187 0 1.570134.639012 1.775391 1.5.038325-.160763.064453-.326212.064453-.5 0-1.104533-.823791-2-1.839844-2h-6.80664-2.908204z" fill="#fff" opacity=".2"/></svg>

<svg xmlns="http://www.w3.org/2000/svg" width="32" height="32" x="0" y="0" version="1.1" viewBox="0 0 32 32" xml:space="preserve">
 <path style="opacity:0.2" d="M 12.501953,7.0234375 C 12.045628,7.0133307 11.586409,7.1770952 11.230469,7.5175781 L 8.1816406,10.433594 C 4.0705249,14.366471 3.9244848,20.912323 7.8574219,25.023438 L 8.7910156,26 13.128906,26 9.8359375,22.556641 C 8.6698479,21.337701 8.0516736,19.792198 7.9746094,18.226562 7.8816154,16.337297 8.4568951,14.282791 10.046875,13.011719 l 3.648437,-2.917969 c 0.769376,-0.6150596 0.737606,-1.8096641 0.05664,-2.5214844 -0.340482,-0.3558807 -0.793675,-0.5387213 -1.25,-0.5488281 z"/>
 <path d="m 15.030145,18.503372 c 0.06257,-0.236804 0.218003,-0.439471 0.432199,-0.563409 l 3.133865,-1.812806 c 0.445937,-0.257962 1.020079,-0.111021 1.282109,0.328327 l 1.992575,3.341696 c 0.261904,0.439408 0.112717,1.004722 -0.333345,1.262807 l -3.133865,1.812806 c -0.193151,0.111698 -0.410218,0.147495 -0.615608,0.116557 -0.268961,-0.0406 -0.517939,-0.195717 -0.666501,-0.444883 l -1.992575,-3.341695 c -0.125832,-0.21097 -0.161365,-0.462597 -0.09885,-0.6994 z" style="opacity:0.2"/>
 <path style="opacity:0.2" d="m 7.8397862,26.999996 7.6053098,0 2.909009,0 6.806107,0 c 1.016053,0 1.839787,0.895468 1.839787,2.000001 0,1.104533 -0.823734,1.999999 -1.839787,1.999999 l -6.806107,0 -4.298539,0 -6.2157798,0 c -1.0160528,0 -1.8397869,-0.895466 -1.8397869,-1.999999 0,-1.1046 0.8236725,-2.000001 1.8397869,-2.000001 z"/>
 <rect width="7" height="2" x="-25" y="25" transform="scale(-1,1)" style="fill:#cccccc"/>
 <path style="fill:#3f3f3f" d="m 14.337706,29.649998 10.765295,0 c 0.985003,0 1.783564,-0.448561 1.783564,-1.433564 0,-0.985002 -0.798561,-1.783564 -1.783564,-1.783564 l -10.603005,0 -4.6646744,-4.876086 C 8.6692321,20.337845 8.0510657,18.791978 7.9740015,17.226343 7.8810075,15.337078 8.4568733,13.282936 10.046853,12.011864 L 13.696039,9.0946066 C 14.465414,8.4795472 14.432829,7.2847055 13.751864,6.5728853 13.070899,5.861124 11.942022,5.8360946 11.230142,6.5170603 L 8.1806643,9.4343166 C 4.0695491,13.367194 3.9245454,19.911567 7.857482,24.022681 l 5.191419,5.426673 c 0.3365,0.351717 0.80207,0.200644 1.288805,0.200644 z"/>
 <path style="fill:#4f4f4f" d="m 15.030145,17.503374 c 0.06257,-0.236804 0.218003,-0.439471 0.432199,-0.563409 l 3.133865,-1.812806 c 0.445937,-0.257962 1.020079,-0.111021 1.282109,0.328327 l 1.992575,3.341696 c 0.261904,0.439408 0.112717,1.004722 -0.333345,1.262807 l -3.133865,1.812806 c -0.193151,0.111698 -0.410218,0.147495 -0.615608,0.116557 -0.268961,-0.0406 -0.517939,-0.195717 -0.666501,-0.444883 l -1.992575,-3.341695 c -0.125832,-0.21097 -0.161365,-0.462597 -0.09885,-0.6994 z"/>
 <path d="M 7.096993,6.7192615 C 7.2969984,5.9261435 7.7845568,5.260772 8.4699149,4.8457454 L 10.820278,3.4223953 c 0.588171,-0.3561219 1.282818,-0.4936859 1.956042,-0.3873701 0.889601,0.1404972 1.661056,0.6796188 2.11651,1.4792018 l 5.9872,10.511671 c 0.117042,0.205388 0.150077,0.450226 0.0919,0.680697 -0.05811,0.230469 -0.202617,0.427717 -0.401809,0.54834 l -5.979944,3.621261 c -0.179569,0.10871 -0.381373,0.143549 -0.572321,0.113439 -0.25005,-0.03951 -0.481521,-0.190482 -0.619638,-0.432985 L 7.4110214,9.0450383 C 7.0085151,8.3383017 6.8969883,7.5123794 7.096993,6.7192615 Z" style="opacity:0.2"/>
 <path style="fill:#ff9b32" d="M 7.096993,5.7192632 C 7.2969984,4.9261452 7.7845568,4.2607737 8.4699149,3.8457471 L 10.820278,2.422397 c 0.588171,-0.3561219 1.282818,-0.4936859 1.956042,-0.3873701 0.889601,0.1404972 1.661056,0.6796188 2.11651,1.4792018 L 20.88003,14.0259 c 0.117042,0.205388 0.150077,0.450226 0.0919,0.680697 -0.05811,0.230469 -0.202617,0.427717 -0.401809,0.54834 l -5.979944,3.621261 c -0.179569,0.10871 -0.381373,0.143549 -0.572321,0.113439 -0.25005,-0.03951 -0.481521,-0.190482 -0.619638,-0.432985 L 7.4110214,8.04504 C 7.0085151,7.3383034 6.8969883,6.5123811 7.096993,5.7192632 Z"/>
 <path d="m 7.8397862,25.999998 7.6053098,0 2.909009,0 6.806107,0 c 1.016053,0 1.839787,0.895468 1.839787,2.000001 0,1.104533 -0.823734,1.999999 -1.839787,1.999999 l -6.806107,0 -4.298539,0 -6.2157798,0 c -1.0160528,0 -1.8397869,-0.895466 -1.8397869,-1.999999 0,-1.1046 0.8236725,-2.000001 1.8397869,-2.000001 z" style="fill:#ff9b32"/>
 <path d="m 9.9999989,14.999996 c 2.2056071,0 3.9999991,-1.794392 3.9999991,-3.999999 0,-2.2056068 -1.794392,-3.9999992 -3.9999991,-3.9999992 -2.2056071,0 -3.9999996,1.7943924 -3.9999996,3.9999992 0,2.205607 1.7943925,3.999999 3.9999996,3.999999 z" style="opacity:0.2"/>
 <path style="fill:#4f4f4f" d="m 9.9999989,13.999998 c 2.2056071,0 3.9999991,-1.794392 3.9999991,-3.9999997 0,-2.2056064 -1.794392,-3.9999988 -3.9999991,-3.9999988 -2.2056071,0 -3.9999996,1.7943924 -3.9999996,3.9999988 0,2.2056077 1.7943925,3.9999997 3.9999996,3.9999997 z"/>
 <path d="m 9.9999988,8.9999975 c 1.1028072,0 2.0000002,0.8971926 2.0000002,1.9999995 0,1.102807 -0.897193,1.999999 -2.0000002,1.999999 -1.1028072,0 -1.9999998,-0.897192 -1.9999998,-1.999999 0,-1.1028069 0.8971926,-1.9999995 1.9999998,-1.9999995 z" style="opacity:0.2"/>
 <path style="fill:#cccccc" d="m 9.9999988,7.9999992 c 1.1028072,0 2.0000002,0.8971926 2.0000002,1.9999991 0,1.1028077 -0.897193,1.9999997 -2.0000002,1.9999997 -1.1028072,0 -1.9999998,-0.897192 -1.9999998,-1.9999997 0,-1.1028065 0.8971926,-1.9999991 1.9999998,-1.9999991 z"/>
 <path style="fill:#ffffff;opacity:0.2" d="M 12.269531 2 C 11.762575 2.0105311 11.261441 2.1547835 10.820312 2.421875 L 8.4707031 3.8457031 C 7.7853449 4.2607298 7.2976617 4.9256319 7.0976562 5.71875 C 6.988712 6.150768 6.9801329 6.590658 7.0527344 7.0175781 C 7.0680189 6.9180782 7.0727474 6.8175259 7.0976562 6.71875 C 7.2976617 5.9256319 7.7853449 5.2607298 8.4707031 4.8457031 L 10.820312 3.421875 C 11.408484 3.0657531 12.102167 2.9288404 12.775391 3.0351562 C 13.664992 3.1756535 14.437124 3.7140888 14.892578 4.5136719 L 20.849609 14.96875 C 20.901374 14.887522 20.948492 14.80287 20.972656 14.707031 C 21.030833 14.47656 20.997901 14.230779 20.880859 14.025391 L 14.892578 3.5136719 C 14.437124 2.7140888 13.664992 2.1756535 12.775391 2.0351562 C 12.607085 2.0085773 12.438517 1.9964896 12.269531 2 z"/>
 <path style="fill:#ffffff;opacity:0.2" d="M 7.8398438 26 C 6.8237292 26 6 26.8954 6 28 C 6 28.173788 6.0261276 28.339237 6.0644531 28.5 C 6.2696979 27.638987 6.9836057 27 7.8398438 27 L 15.445312 27 L 18.353516 27 L 25.160156 27 C 26.016343 27 26.73029 27.639012 26.935547 28.5 C 26.973872 28.339237 27 28.173788 27 28 C 27 26.895467 26.176209 26 25.160156 26 L 18.353516 26 L 15.445312 26 L 7.8398438 26 z"/>
</svg>
